icons/mobile/24/svg/seek-backward-fill-24.svg

<svg width="24" height="24" viewBox="0 0 24 24" fill="none" xmlns="http://www.w3.org/2000/svg">
<path d="M8.67483 7.25224C9.67181 6.59026 11 7.31098 11 8.51494V16.4847C11 17.6886 9.67182 18.4103 8.67483 17.7483L2.67483 13.763C1.77492 13.165 1.77486 11.8346 2.67483 11.2366L8.67483 7.25224Z" fill="black"/>
<path d="M19.6748 7.25224C20.6718 6.59026 22 7.31098 22 8.51494V16.4847C22 17.6886 20.6718 18.4103 19.6748 17.7483L13.6748 13.763C12.7749 13.165 12.7749 11.8346 13.6748 11.2366L19.6748 7.25224Z" fill="black"/>
</svg>

<!-- This Source Code Form is subject to the terms of the Mozilla Public
   - License, v. 2.0. If a copy of the MPL was not distributed with this
   - file, You can obtain one at http://mozilla.org/MPL/2.0/. -->
<svg xmlns="http://www.w3.org/2000/svg" width="24" height="24" fill="none" viewBox="0 0 24 24">
    <path fill="#000" d="M8.675 7.252C9.672 6.59 11 7.311 11 8.515v7.97c0 1.204-1.328 1.925-2.325 1.263l-6-3.985a1.52 1.52 0 0 1 0-2.526zM19.675 7.252C20.672 6.59 22 7.311 22 8.515v7.97c0 1.204-1.328 1.925-2.325 1.263l-6-3.985a1.52 1.52 0 0 1 0-2.526z" />
</svg>
